X:1
T:Title
%%score { ( 1 3 ) | 2 }
L:1/8
M:4/4
K:D
V:1 treble nm="Grand Piano"
V:3 treble 
V:2 bass 
V:1
 z4 z2[Q:1/4=108] [DF][EG] | [FA]4 [Fd]2 [Gc][GB] | [FA]4 F2 A2 | B3 A G2 F2 |[M:3/4] [CE]6 | %5
[M:1/4] [DF][EG] |[M:4/4] [FA]2 [Fd]2 [Gc]2 [GB]2 | [FA]3 [GB] [FA]2 F2 | E2 c2 c2 B2 | %9
[M:3/4] [A,CA]6 |[M:1/4] AA |[M:4/4] [Fd]2 [Gd]2 [Fd]2 [DF][EG] | %12
 [FA][FA][FA][GB] [FA][DF][EG][DF] | E2- [CE-][CE] [Ec][Ec][B,GB][CGA] | [DF]2 z2 z4 | BBBc d2 cB | %16
 [GB][FA][FA][GB] [FA]2 Fd | [Ec]4 [Ec]2 [GB][Gc] |[M:3/4] d2- [Gd-][Gd-] [Fd]2 |] %19
V:2
 z4 z2 [D,A,][D,A,] | [D,D]4 [D,A,]2 [D,B,][D,C] | [D,D]4 [D,A,D]2 [F,A,D]2 | %3
 [G,D]3 [F,A,D] [E,A,C]2 [D,A,D]2 |[M:3/4] [A,,A,]6 |[M:1/4] [D,A,]2 | %6
[M:4/4] [D,D]2 [D,A,]2 [D,B,]2 [D,C]2 | [D,D]3 [D,D] [D,D]2 [D,A,D]2 | %8
 [E,A,C]2 [E,A,E]2 [E,A,E]2 [E,^G,D]2 |[M:3/4] A,,6 |[M:1/4] A,A, | %11
[M:4/4] [D,A,]2 [D,B,]2 [D,A,]2 [D,A,][D,A,] | [D,D][D,D][D,D][D,D] [D,D][D,A,][C,A,][D,A,] | %13
 [A,,A,]2 [A,,A,][A,,A,] [A,,A,][A,,A,]A,,A,, | D,2 D,D, D,2 [D,D][D,D] | %15
 [G,DG][G,DG][G,DG][G,CG] [G,B,G]2 [G,CG][G,DG] | [D,D][D,D][D,D][D,D] [D,D]2[K:treble] DF | %17
 A,A, A,2[K:bass] A,2 [A,,A,][A,,A,] |[M:3/4] [D,A,]2 [D,B,][D,B,] [D,A,]2 |] %19
V:3
 x8 | x8 | x8 | x8 |[M:3/4] x6 |[M:1/4] x2 |[M:4/4] x8 | x8 | x8 |[M:3/4] x6 |[M:1/4] x2 | %11
[M:4/4] x8 | x8 | C2 z2 z4 | A2- [A,FA-][G,EA-] [F,DA]2 [FA][FA] | x8 | x8 | x8 | %18
[M:3/4] F2 z2 z2 |] %19

